packages/ui-icons/svg/Solid/marker.svg

<svg viewBox="0 0 1920 1920" version="1.1" xmlns="http://www.w3.org/2000/svg">
    <path d="M956.952,0 C594.552,0 299.952,294.6 299.952,656.88 C299.952,837.48 380.232,1004.76 545.352,1168.44 C785.112,1406.4 896.952,1626.12 896.952,1860 L896.952,1920 L1016.952,1920 L1016.952,1860 C1016.952,1627.2 1127.232,1413.84 1374.552,1168.56 C1539.672,1004.76 1619.952,837.48 1619.952,656.88 C1619.952,294.6 1325.352,0 956.952,0" stroke="none" stroke-width="1" fill-rule="evenodd"/>
</svg>

<svg viewBox="0 0 1920 1920" version="1.1" xmlns="http://www.w3.org/2000/svg">
    <path d="M956.952 0c-362.4 0-657 294.6-657 656.88 0 180.6 80.28 347.88 245.4 511.56 239.76 237.96 351.6 457.68 351.6 691.56v60h120v-60c0-232.8 110.28-446.16 357.6-691.44 165.12-163.8 245.4-331.08 245.4-511.68 0-362.28-294.6-656.88-663-656.88" stroke="none" stroke-width="1" fill-rule="evenodd"/>
</svg>
